X: 1
T: The Fair Haired Lass
M: 4/4
L: 1/8
S: Dianna Boullier, Bangor (fiddle)
R: Reel
D: Radio Na Gaeltachta
N: As played
Z: Bernie Stocks
F: http://ceolas.org/pub/tunes/abc.tunes/Book3.abc 2003-10-31 15:46:06 UT
K: Amix
|: cd | "A"ea ~a2 efgf | ea ~a2 ABcd | ea ~a2 ef{a}fe | afge "G"[D2d2] :|
|: cd | "A"eA ~A2 efgf | eAA=c  "G"BGGB | "A"ABcd ef{a}fe | afge "G"[D2d2] :|
